resources/images/param_line.svg

<svg width="24" height="24" viewBox="0 0 24 24" fill="none" xmlns="http://www.w3.org/2000/svg">
<path opacity="0.75" d="M15.5 1.5L22.5 6.5M13.5 1.5L22.5 14.5M22.5 17.5L3.5 1.5M17.5 22.5L1.5 3.5M1.5 13.5L14.5 22.5M6.5 22.5L1.5 15.5" stroke="#949494" stroke-linecap="round" stroke-linejoin="round"/>
<path d="M1.5 6.5L8.5 1.5M1.5 14.5L10.5 1.5M1.5 17.5L20.5 1.5M6.5 22.5L22.5 3.5M9.5 22.5L22.5 13.5M17.5 22.5L22.5 15.5" stroke="#FF7C3F" stroke-linecap="round" stroke-linejoin="round"/>
<path d="M20.5 1.5H3.5C2.39543 1.5 1.5 2.39543 1.5 3.5V20.5C1.5 21.6046 2.39543 22.5 3.5 22.5H20.5C21.6046 22.5 22.5 21.6046 22.5 20.5V3.5C22.5 2.39543 21.6046 1.5 20.5 1.5Z" stroke="#949494" stroke-linecap="round" stroke-linejoin="round"/>
</svg>

<svg xmlns="http://www.w3.org/2000/svg" width="24" height="24" viewBox="0 0 24 24"><path d="M15.5,1.5l7,5m-9-5,9,13m0,3-19-16m14,21-16-19m0,10,13,9m-8,0-5-7" style="fill:none;stroke:#949494;stroke-linecap:round;stroke-linejoin:round;opacity:0.75"/><path d="M1.5,6.5l7-5m-7,13,9-13m-9,16,19-16m-14,21,16-19m-13,19,13-9m-5,9,5-7" style="fill:none;stroke:#009688;stroke-linecap:round;stroke-linejoin:round"/><rect x="1.5" y="1.5" width="21" height="21" rx="2" style="fill:none;stroke:#949494;stroke-linecap:round;stroke-linejoin:round"/></svg>
